Newaita-dark/apps/64/gnome-nibbles.svg

<svg height="64" viewBox="0 0 64 64" width="64" xmlns="http://www.w3.org/2000/svg" xmlns:xlink="http://www.w3.org/1999/xlink"><linearGradient id="a" gradientUnits="userSpaceOnUse" x1="31.75304" x2="31.75304" y1="56.067872" y2="58.71396000006"><stop offset="0" stop-opacity=".27451"/><stop offset="1" stop-opacity="0"/></linearGradient><linearGradient id="b"><stop offset="0" stop-opacity=".313726"/><stop offset=".222222" stop-opacity=".27451"/><stop offset="1" stop-opacity="0"/></linearGradient><radialGradient id="c" cx="450.908936" cy="189.579361" gradientTransform="matrix(.00000035 -.156265 -.281277 -.0000002 104.261296 127.190665)" gradientUnits="userSpaceOnUse" r="21.166656" xlink:href="#b"/><radialGradient id="d" cx="450.908936" cy="189.579361" gradientTransform="matrix(-.00000035 .156265 .281277 .0000002 -40.755227 -15.054958)" gradientUnits="userSpaceOnUse" r="21.166656" xlink:href="#b"/><radialGradient id="e" cx="450.908936" cy="189.579361" gradientTransform="matrix(-.00000035 -.156265 .281277 -.0000002 -40.755227 127.190665)" gradientUnits="userSpaceOnUse" r="21.166656" xlink:href="#b"/><radialGradient id="f" cx="450.908936" cy="189.579361" gradientTransform="matrix(.00000035 .156265 -.281277 .0000002 104.261293 -15.054959)" gradientUnits="userSpaceOnUse" r="21.166656" xlink:href="#b"/><linearGradient id="g" gradientUnits="userSpaceOnUse" x1="21.16869799994" x2="21.16869799994" y1="56.067868" y2="5.79221000013"><stop offset="0" stop-color="#424242"/><stop offset="1" stop-color="#616161"/></linearGradient><linearGradient id="h" gradientUnits="userSpaceOnUse" x1="19.184138" x2="19.184138" y1="42.83745790428" y2="38.20680390428"><stop offset="0" stop-color="#ef5350"/><stop offset="1" stop-color="#e57373"/></linearGradient><path d="m11.90625 55.871094h39.691406v2.941406h-39.691406zm0 0" fill="url(#a)"/><path d="m51.597656 56.066406h5.292969v-2.644531h-5.292969zm0 0" fill="url(#c)"/><path d="m11.90625 56.066406h-5.292969v2.648438h5.292969zm0 0" fill="url(#d)"/><path d="m11.90625 56.066406h-5.292969v-2.644531h5.292969zm0 0" fill="url(#e)"/><path d="m51.597656 56.066406h5.292969v2.648438h-5.292969zm0 0" fill="url(#f)"/><path d="m9.261719 5.792969h44.984375c1.460937 0 2.644531 1.183593 2.644531 2.644531v44.984375c0 1.460937-1.183594 2.644531-2.644531 2.644531h-44.984375c-1.460938 0-2.648438-1.183594-2.648438-2.644531v-44.984375c0-1.460938 1.1875-2.644531 2.648438-2.644531zm0 0" fill="url(#g)"/><path d="m9.261719 5.792969c-1.464844 0-2.648438 1.179687-2.648438 2.644531v.332031c0-1.464843 1.183594-2.648437 2.648438-2.648437h44.984375c1.464844 0 2.644531 1.183594 2.644531 2.648437v-.332031c0-1.464844-1.179687-2.644531-2.644531-2.644531zm0 0" fill="#e6e6e6" fill-opacity=".392157"/><path d="m9.261719 56.066406c-1.464844 0-2.648438-1.179687-2.648438-2.644531v-.332031c0 1.46875 1.183594 2.648437 2.648438 2.648437h44.984375c1.464844 0 2.644531-1.179687 2.644531-2.648437v.332031c0 1.464844-1.179687 2.644531-2.644531 2.644531zm0 0" fill-opacity=".196078"/><path d="m74.086675-168.660675h359.840637c11.686384 0 21.15423 9.467846 21.15423 21.15423v359.840637c0 11.686384-9.467846 21.154229-21.15423 21.154229h-359.840637c-11.686384 0-21.185477-9.467845-21.185477-21.154229v-359.840637c0-11.686384 9.499093-21.15423 21.185477-21.15423zm0 0" fill="none" stroke="#212121" stroke-linecap="round" stroke-width="3" transform="matrix(.125012 0 0 .125012 0 26.877566)"/><path d="m19.183594 17.039062c-.734375 0-1.324219.589844-1.324219 1.320313v12.570313c0 .734374.589844 1.324218 1.324219 1.324218s1.324218-.589844 1.324218-1.324218v-11.246094h9.921876v21.832031c0 .730469.515624 1.320313 1.160156 1.320313h12.730468c.734376 0 1.324219-.589844 1.324219-1.320313 0-.734375-.589843-1.324219-1.324219-1.324219h-11.246093v-21.832031c0-.730469-.515625-1.320313-1.15625-1.320313zm0 0" fill="#81c784"/><path d="m17.859375 38.207031c-.730469 0-1.320313.589844-1.320313 1.324219v1.984375c0 .730469.589844 1.320313 1.320313 1.320313h2.648437c.730469 0 1.324219-.589844 1.324219-1.320313v-1.984375c0-.734375-.59375-1.324219-1.324219-1.324219h-.664062v.660157c0 .367187-.292969.664062-.660156.664062-.367188 0-.660156-.296875-.660156-.664062v-.660157zm0 0" fill="url(#h)"/><path d="m19.183594 36.554688c.546875 0 .992187.441406.992187.992187v.992187c0 .546876-.445312.992188-.992187.992188s-.992188-.445312-.992188-.992188v-.992187c0-.550781.445313-.992187.992188-.992187zm0 0" fill="#689f38" fill-opacity=".995816"/><path d="m19.183594 36.554688c-.550782 0-.992188.441406-.992188.992187v.660156c0-.550781.441406-.992187.992188-.992187.550781 0 .992187.441406.992187.992187v-.660156c0-.550781-.441406-.992187-.992187-.992187zm0 0" fill="#fff" fill-opacity=".392157"/><path d="m19.183594 17.039062c-.734375 0-1.324219.589844-1.324219 1.320313v.664063c0-.734376.589844-1.324219 1.324219-1.324219h12.734375c.640625 0 1.15625.589843 1.15625 1.324219v-.664063c0-.730469-.515625-1.320313-1.15625-1.320313zm13.890625 23.152344v.660156h11.246093c.621094 0 1.136719.421876 1.285157.992188.023437-.105469.039062-.214844.039062-.328125 0-.734375-.589843-1.324219-1.324219-1.324219zm0 0" fill="#fff" fill-opacity=".392157"/><path d="m20.507812 19.683594v.992187h9.921876v-.992187zm-2.648437 11.246094v.992187c0 .734375.589844 1.324219 1.324219 1.324219s1.324218-.589844 1.324218-1.324219v-.992187c0 .734374-.589843 1.324218-1.324218 1.324218s-1.324219-.589844-1.324219-1.324218zm12.570313 10.585937v.992187c0 .730469.515624 1.320313 1.160156 1.320313h12.730468c.734376 0 1.324219-.589844 1.324219-1.320313 0-.175781-.035156-.34375-.09375-.496093-.195312.484375-.671875.824219-1.230469.824219h-12.730468c-.644532 0-1.160156-.589844-1.160156-1.320313zm0 0" fill-opacity=".235294"/><path d="m153.454096-78.700516c-5.874439 0-10.592739 4.718299-10.592739 10.561491v100.552898c0 5.874439 4.7183 10.592739 10.592739 10.592739s10.592738-4.7183 10.592738-10.592739v-89.960159h79.367421v174.639573c0 5.843192 4.124606 10.561491 9.280364 10.561491h101.834025c5.874439 0 10.592739-4.718299 10.592739-10.561491 0-5.874439-4.7183-10.592739-10.592739-10.592739h-89.960159v-174.639573c0-5.843192-4.124606-10.561491-9.249117-10.561491zm0 0" fill="none" stroke="#212121" stroke-linecap="square" stroke-linejoin="bevel" stroke-width="3" transform="matrix(.125012 0 0 .125012 0 26.877566)"/><path d="m17.859375 38.207031c-.730469 0-1.320313.589844-1.320313 1.324219v.660156c0-.734375.589844-1.324218 1.320313-1.324218h.664063v-.660157zm1.984375 0v.660157h.664062c.730469 0 1.324219.589843 1.324219 1.324218v-.660156c0-.734375-.59375-1.324219-1.324219-1.324219zm-1.320312.660157v.664062c0 .363281.292968.660156.660156.660156.367187 0 .660156-.296875.660156-.660156v-.664062c0 .367187-.292969.664062-.660156.664062-.367188 0-.660156-.296875-.660156-.664062zm0 0" fill="#fff" fill-opacity=".392157"/><path d="m16.539062 41.515625v.992187c0 .730469.589844 1.320313 1.320313 1.320313h2.648437c.730469 0 1.324219-.589844 1.324219-1.320313v-.992187c0 .730469-.59375 1.320313-1.324219 1.320313h-2.648437c-.730469 0-1.320313-.589844-1.320313-1.320313zm0 0" fill-opacity=".235294"/><g stroke="#212121" stroke-linecap="square" stroke-linejoin="bevel"><path d="m539.948466 1155.125972c-22.084506 0-39.91745 17.832944-39.91745 40.035549v59.994274c0 22.084507 17.832944 39.91745 39.91745 39.91745h80.071098c22.084506 0 40.035549-17.832943 40.035549-39.91745v-59.994274c0-22.202605-17.951043-40.035549-40.035549-40.035549h-20.076824v19.958725c0 11.101303-8.857422 20.076824-19.958725 20.076824s-19.958725-8.975521-19.958725-20.076824v-19.958725zm0 0" fill="none" stroke-width="11.338583" transform="scale(.0330761)"/><path d="m153.454096 77.409576c4.374582 0 7.936742 3.530913 7.936742 7.936742v7.936742c0 4.374583-3.56216 7.936743-7.936742 7.936743s-7.936742-3.56216-7.936742-7.936743v-7.936742c0-4.405829 3.56216-7.936742 7.936742-7.936742zm0 0" fill="#689f38" fill-opacity=".995816" stroke-width="3" transform="matrix(.125012 0 0 .125012 0 26.877566)"/></g></svg>

<?xml version="1.0" encoding="UTF-8"?>
<svg xmlns="http://www.w3.org/2000/svg" xmlns:xlink="http://www.w3.org/1999/xlink" width="64px" height="64px" viewBox="0 0 64 64" version="1.1">
<defs>
<linearGradient id="linear0" gradientUnits="userSpaceOnUse" x1="254" y1="233.5" x2="254" y2="254.666672" gradientTransform="matrix(0.125012,0,0,0.125012,-0.00000763012,26.87757)">
<stop offset="0" style="stop-color:rgb(0%,0%,0%);stop-opacity:0.27451;"/>
<stop offset="1" style="stop-color:rgb(0%,0%,0%);stop-opacity:0;"/>
</linearGradient>
<radialGradient id="radial0" gradientUnits="userSpaceOnUse" cx="450.908936" cy="189.579361" fx="450.908936" fy="189.579361" r="21.166656" gradientTransform="matrix(0.000000348341,-0.156265,-0.281277,-0.000000203077,104.261296,127.190665)">
<stop offset="0" style="stop-color:rgb(0%,0%,0%);stop-opacity:0.313726;"/>
<stop offset="0.222222" style="stop-color:rgb(0%,0%,0%);stop-opacity:0.27451;"/>
<stop offset="1" style="stop-color:rgb(0%,0%,0%);stop-opacity:0;"/>
</radialGradient>
<radialGradient id="radial1" gradientUnits="userSpaceOnUse" cx="450.908936" cy="189.579361" fx="450.908936" fy="189.579361" r="21.166656" gradientTransform="matrix(-0.000000348341,0.156265,0.281277,0.000000203077,-40.755227,-15.054958)">
<stop offset="0" style="stop-color:rgb(0%,0%,0%);stop-opacity:0.313726;"/>
<stop offset="0.222222" style="stop-color:rgb(0%,0%,0%);stop-opacity:0.27451;"/>
<stop offset="1" style="stop-color:rgb(0%,0%,0%);stop-opacity:0;"/>
</radialGradient>
<radialGradient id="radial2" gradientUnits="userSpaceOnUse" cx="450.908936" cy="189.579361" fx="450.908936" fy="189.579361" r="21.166656" gradientTransform="matrix(-0.000000348341,-0.156265,0.281277,-0.000000203077,-40.755227,127.190665)">
<stop offset="0" style="stop-color:rgb(0%,0%,0%);stop-opacity:0.313726;"/>
<stop offset="0.222222" style="stop-color:rgb(0%,0%,0%);stop-opacity:0.27451;"/>
<stop offset="1" style="stop-color:rgb(0%,0%,0%);stop-opacity:0;"/>
</radialGradient>
<radialGradient id="radial3" gradientUnits="userSpaceOnUse" cx="450.908936" cy="189.579361" fx="450.908936" fy="189.579361" r="21.166656" gradientTransform="matrix(0.000000348341,0.156265,-0.281277,0.000000203077,104.261293,-15.054959)">
<stop offset="0" style="stop-color:rgb(0%,0%,0%);stop-opacity:0.313726;"/>
<stop offset="0.222222" style="stop-color:rgb(0%,0%,0%);stop-opacity:0.27451;"/>
<stop offset="1" style="stop-color:rgb(0%,0%,0%);stop-opacity:0;"/>
</radialGradient>
<linearGradient id="linear1" gradientUnits="userSpaceOnUse" x1="169.333328" y1="233.5" x2="169.333328" y2="-168.666656" gradientTransform="matrix(0.125012,0,0,0.125012,0,26.877566)">
<stop offset="0" style="stop-color:rgb(25.882354%,25.882354%,25.882354%);stop-opacity:1;"/>
<stop offset="1" style="stop-color:rgb(38.039216%,38.039216%,38.039216%);stop-opacity:1;"/>
</linearGradient>
<linearGradient id="linear2" gradientUnits="userSpaceOnUse" x1="580" y1="1295.118164" x2="580" y2="1155.118164" gradientTransform="matrix(0.0330761,0,0,0.0330761,0,0)">
<stop offset="0" style="stop-color:rgb(93.725491%,32.549021%,31.37255%);stop-opacity:1;"/>
<stop offset="1" style="stop-color:rgb(89.803922%,45.09804%,45.09804%);stop-opacity:1;"/>
</linearGradient>
</defs>
<g id="surface1">
<path style=" stroke:none;fill-rule:nonzero;fill:url(#linear0);" d="M 11.90625 55.871094 L 51.597656 55.871094 L 51.597656 58.8125 L 11.90625 58.8125 Z M 11.90625 55.871094 "/>
<path style=" stroke:none;fill-rule:nonzero;fill:url(#radial0);" d="M 51.597656 56.066406 L 56.890625 56.066406 L 56.890625 53.421875 L 51.597656 53.421875 Z M 51.597656 56.066406 "/>
<path style=" stroke:none;fill-rule:nonzero;fill:url(#radial1);" d="M 11.90625 56.066406 L 6.613281 56.066406 L 6.613281 58.714844 L 11.90625 58.714844 Z M 11.90625 56.066406 "/>
<path style=" stroke:none;fill-rule:nonzero;fill:url(#radial2);" d="M 11.90625 56.066406 L 6.613281 56.066406 L 6.613281 53.421875 L 11.90625 53.421875 Z M 11.90625 56.066406 "/>
<path style=" stroke:none;fill-rule:nonzero;fill:url(#radial3);" d="M 51.597656 56.066406 L 56.890625 56.066406 L 56.890625 58.714844 L 51.597656 58.714844 Z M 51.597656 56.066406 "/>
<path style=" stroke:none;fill-rule:nonzero;fill:url(#linear1);" d="M 9.261719 5.792969 L 54.246094 5.792969 C 55.707031 5.792969 56.890625 6.976562 56.890625 8.4375 L 56.890625 53.421875 C 56.890625 54.882812 55.707031 56.066406 54.246094 56.066406 L 9.261719 56.066406 C 7.800781 56.066406 6.613281 54.882812 6.613281 53.421875 L 6.613281 8.4375 C 6.613281 6.976562 7.800781 5.792969 9.261719 5.792969 Z M 9.261719 5.792969 "/>
<path style=" stroke:none;fill-rule:nonzero;fill:rgb(90.196079%,90.196079%,90.196079%);fill-opacity:0.392157;" d="M 9.261719 5.792969 C 7.796875 5.792969 6.613281 6.972656 6.613281 8.4375 L 6.613281 8.769531 C 6.613281 7.304688 7.796875 6.121094 9.261719 6.121094 L 54.246094 6.121094 C 55.710938 6.121094 56.890625 7.304688 56.890625 8.769531 L 56.890625 8.4375 C 56.890625 6.972656 55.710938 5.792969 54.246094 5.792969 Z M 9.261719 5.792969 "/>
<path style=" stroke:none;fill-rule:nonzero;fill:rgb(0%,0%,0%);fill-opacity:0.196078;" d="M 9.261719 56.066406 C 7.796875 56.066406 6.613281 54.886719 6.613281 53.421875 L 6.613281 53.089844 C 6.613281 54.558594 7.796875 55.738281 9.261719 55.738281 L 54.246094 55.738281 C 55.710938 55.738281 56.890625 54.558594 56.890625 53.089844 L 56.890625 53.421875 C 56.890625 54.886719 55.710938 56.066406 54.246094 56.066406 Z M 9.261719 56.066406 "/>
<path style="fill:none;stroke-width:3;stroke-linecap:round;stroke-linejoin:miter;stroke:rgb(12.941177%,12.941177%,12.941177%);stroke-opacity:1;stroke-miterlimit:4;" d="M 74.086675 -168.660675 L 433.927312 -168.660675 C 445.613696 -168.660675 455.081542 -159.192829 455.081542 -147.506445 L 455.081542 212.334192 C 455.081542 224.020576 445.613696 233.488421 433.927312 233.488421 L 74.086675 233.488421 C 62.400291 233.488421 52.901198 224.020576 52.901198 212.334192 L 52.901198 -147.506445 C 52.901198 -159.192829 62.400291 -168.660675 74.086675 -168.660675 Z M 74.086675 -168.660675 " transform="matrix(0.125012,0,0,0.125012,0,26.877566)"/>
<path style=" stroke:none;fill-rule:nonzero;fill:rgb(50.588238%,78.039217%,51.764709%);fill-opacity:1;" d="M 19.183594 17.039062 C 18.449219 17.039062 17.859375 17.628906 17.859375 18.359375 L 17.859375 30.929688 C 17.859375 31.664062 18.449219 32.253906 19.183594 32.253906 C 19.917969 32.253906 20.507812 31.664062 20.507812 30.929688 L 20.507812 19.683594 L 30.429688 19.683594 L 30.429688 41.515625 C 30.429688 42.246094 30.945312 42.835938 31.589844 42.835938 L 44.320312 42.835938 C 45.054688 42.835938 45.644531 42.246094 45.644531 41.515625 C 45.644531 40.78125 45.054688 40.191406 44.320312 40.191406 L 33.074219 40.191406 L 33.074219 18.359375 C 33.074219 17.628906 32.558594 17.039062 31.917969 17.039062 Z M 19.183594 17.039062 "/>
<path style=" stroke:none;fill-rule:nonzero;fill:url(#linear2);" d="M 17.859375 38.207031 C 17.128906 38.207031 16.539062 38.796875 16.539062 39.53125 L 16.539062 41.515625 C 16.539062 42.246094 17.128906 42.835938 17.859375 42.835938 L 20.507812 42.835938 C 21.238281 42.835938 21.832031 42.246094 21.832031 41.515625 L 21.832031 39.53125 C 21.832031 38.796875 21.238281 38.207031 20.507812 38.207031 L 19.84375 38.207031 L 19.84375 38.867188 C 19.84375 39.234375 19.550781 39.53125 19.183594 39.53125 C 18.816406 39.53125 18.523438 39.234375 18.523438 38.867188 L 18.523438 38.207031 Z M 17.859375 38.207031 "/>
<path style=" stroke:none;fill-rule:nonzero;fill:rgb(40.784314%,62.352943%,21.960784%);fill-opacity:0.995816;" d="M 19.183594 36.554688 C 19.730469 36.554688 20.175781 36.996094 20.175781 37.546875 L 20.175781 38.539062 C 20.175781 39.085938 19.730469 39.53125 19.183594 39.53125 C 18.636719 39.53125 18.191406 39.085938 18.191406 38.539062 L 18.191406 37.546875 C 18.191406 36.996094 18.636719 36.554688 19.183594 36.554688 Z M 19.183594 36.554688 "/>
<path style=" stroke:none;fill-rule:nonzero;fill:rgb(100%,100%,100%);fill-opacity:0.392157;" d="M 19.183594 36.554688 C 18.632812 36.554688 18.191406 36.996094 18.191406 37.546875 L 18.191406 38.207031 C 18.191406 37.65625 18.632812 37.214844 19.183594 37.214844 C 19.734375 37.214844 20.175781 37.65625 20.175781 38.207031 L 20.175781 37.546875 C 20.175781 36.996094 19.734375 36.554688 19.183594 36.554688 Z M 19.183594 36.554688 "/>
<path style=" stroke:none;fill-rule:nonzero;fill:rgb(100%,100%,100%);fill-opacity:0.392157;" d="M 19.183594 17.039062 C 18.449219 17.039062 17.859375 17.628906 17.859375 18.359375 L 17.859375 19.023438 C 17.859375 18.289062 18.449219 17.699219 19.183594 17.699219 L 31.917969 17.699219 C 32.558594 17.699219 33.074219 18.289062 33.074219 19.023438 L 33.074219 18.359375 C 33.074219 17.628906 32.558594 17.039062 31.917969 17.039062 Z M 33.074219 40.191406 L 33.074219 40.851562 L 44.320312 40.851562 C 44.941406 40.851562 45.457031 41.273438 45.605469 41.84375 C 45.628906 41.738281 45.644531 41.628906 45.644531 41.515625 C 45.644531 40.78125 45.054688 40.191406 44.320312 40.191406 Z M 33.074219 40.191406 "/>
<path style=" stroke:none;fill-rule:nonzero;fill:rgb(0%,0%,0%);fill-opacity:0.235294;" d="M 20.507812 19.683594 L 20.507812 20.675781 L 30.429688 20.675781 L 30.429688 19.683594 Z M 17.859375 30.929688 L 17.859375 31.921875 C 17.859375 32.65625 18.449219 33.246094 19.183594 33.246094 C 19.917969 33.246094 20.507812 32.65625 20.507812 31.921875 L 20.507812 30.929688 C 20.507812 31.664062 19.917969 32.253906 19.183594 32.253906 C 18.449219 32.253906 17.859375 31.664062 17.859375 30.929688 Z M 30.429688 41.515625 L 30.429688 42.507812 C 30.429688 43.238281 30.945312 43.828125 31.589844 43.828125 L 44.320312 43.828125 C 45.054688 43.828125 45.644531 43.238281 45.644531 42.507812 C 45.644531 42.332031 45.609375 42.164062 45.550781 42.011719 C 45.355469 42.496094 44.878906 42.835938 44.320312 42.835938 L 31.589844 42.835938 C 30.945312 42.835938 30.429688 42.246094 30.429688 41.515625 Z M 30.429688 41.515625 "/>
<path style="fill:none;stroke-width:3;stroke-linecap:square;stroke-linejoin:bevel;stroke:rgb(12.941177%,12.941177%,12.941177%);stroke-opacity:1;stroke-miterlimit:4;" d="M 153.454096 -78.700516 C 147.579657 -78.700516 142.861357 -73.982217 142.861357 -68.139025 L 142.861357 32.413873 C 142.861357 38.288312 147.579657 43.006612 153.454096 43.006612 C 159.328535 43.006612 164.046834 38.288312 164.046834 32.413873 L 164.046834 -57.546286 L 243.414255 -57.546286 L 243.414255 117.093287 C 243.414255 122.936479 247.538861 127.654778 252.694619 127.654778 L 354.528644 127.654778 C 360.403083 127.654778 365.121383 122.936479 365.121383 117.093287 C 365.121383 111.218848 360.403083 106.500548 354.528644 106.500548 L 264.568485 106.500548 L 264.568485 -68.139025 C 264.568485 -73.982217 260.443879 -78.700516 255.319368 -78.700516 Z M 153.454096 -78.700516 " transform="matrix(0.125012,0,0,0.125012,0,26.877566)"/>
<path style=" stroke:none;fill-rule:nonzero;fill:rgb(100%,100%,100%);fill-opacity:0.392157;" d="M 17.859375 38.207031 C 17.128906 38.207031 16.539062 38.796875 16.539062 39.53125 L 16.539062 40.191406 C 16.539062 39.457031 17.128906 38.867188 17.859375 38.867188 L 18.523438 38.867188 L 18.523438 38.207031 Z M 19.84375 38.207031 L 19.84375 38.867188 L 20.507812 38.867188 C 21.238281 38.867188 21.832031 39.457031 21.832031 40.191406 L 21.832031 39.53125 C 21.832031 38.796875 21.238281 38.207031 20.507812 38.207031 Z M 18.523438 38.867188 L 18.523438 39.53125 C 18.523438 39.894531 18.816406 40.191406 19.183594 40.191406 C 19.550781 40.191406 19.84375 39.894531 19.84375 39.53125 L 19.84375 38.867188 C 19.84375 39.234375 19.550781 39.53125 19.183594 39.53125 C 18.816406 39.53125 18.523438 39.234375 18.523438 38.867188 Z M 18.523438 38.867188 "/>
<path style=" stroke:none;fill-rule:nonzero;fill:rgb(0%,0%,0%);fill-opacity:0.235294;" d="M 16.539062 41.515625 L 16.539062 42.507812 C 16.539062 43.238281 17.128906 43.828125 17.859375 43.828125 L 20.507812 43.828125 C 21.238281 43.828125 21.832031 43.238281 21.832031 42.507812 L 21.832031 41.515625 C 21.832031 42.246094 21.238281 42.835938 20.507812 42.835938 L 17.859375 42.835938 C 17.128906 42.835938 16.539062 42.246094 16.539062 41.515625 Z M 16.539062 41.515625 "/>
<path style="fill:none;stroke-width:11.338583;stroke-linecap:square;stroke-linejoin:bevel;stroke:rgb(12.941177%,12.941177%,12.941177%);stroke-opacity:1;stroke-miterlimit:4;" d="M 539.948466 1155.125972 C 517.86396 1155.125972 500.031016 1172.958916 500.031016 1195.161521 L 500.031016 1255.155795 C 500.031016 1277.240302 517.86396 1295.073245 539.948466 1295.073245 L 620.019564 1295.073245 C 642.10407 1295.073245 660.055113 1277.240302 660.055113 1255.155795 L 660.055113 1195.161521 C 660.055113 1172.958916 642.10407 1155.125972 620.019564 1155.125972 L 599.94274 1155.125972 L 599.94274 1175.084697 C 599.94274 1186.186 591.085318 1195.161521 579.984015 1195.161521 C 568.882712 1195.161521 560.02529 1186.186 560.02529 1175.084697 L 560.02529 1155.125972 Z M 539.948466 1155.125972 " transform="matrix(0.0330761,0,0,0.0330761,0,0)"/>
<path style="fill-rule:nonzero;fill:rgb(40.784314%,62.352943%,21.960784%);fill-opacity:0.995816;stroke-width:3;stroke-linecap:square;stroke-linejoin:bevel;stroke:rgb(12.941177%,12.941177%,12.941177%);stroke-opacity:1;stroke-miterlimit:4;" d="M 153.454096 77.409576 C 157.828678 77.409576 161.390838 80.940489 161.390838 85.346318 L 161.390838 93.28306 C 161.390838 97.657643 157.828678 101.219803 153.454096 101.219803 C 149.079514 101.219803 145.517354 97.657643 145.517354 93.28306 L 145.517354 85.346318 C 145.517354 80.940489 149.079514 77.409576 153.454096 77.409576 Z M 153.454096 77.409576 " transform="matrix(0.125012,0,0,0.125012,0,26.877566)"/>
</g>
</svg>
